icon-themes/sifr_svg/cmd/sc_flowchartshapes.flowchart-summing-junction.svg

<svg viewBox="0 0 16 16" xmlns="http://www.w3.org/2000/svg"><g fill="#555753"><path d="m12.949747 3.0502525a7 7 0 0 0 -9.8994945 0 7 7 0 0 0 0 9.8994945 7 7 0 0 0 9.8994945 0 7 7 0 0 0 0-9.8994945zm-1.47498.060767-3.474767 3.4747669-3.4720047-3.4720047a6 6 0 0 1 6.9467717-.00276zm1.411449 1.4169784a6 6 0 0 1 .0028 6.9467691l-3.4748024-3.474767zm-9.7751965-.0027648 3.4747669 3.4747669-3.4720046 3.472005a6 6 0 0 1 -.0027623-6.9467719zm4.8889805 4.8889805 3.472005 3.4720044a6 6 0 0 1 -6.9467716.0028z"/><path d="m12.242641 3.7573593a6 6 0 0 0 -8.4852817 0 6 6 0 0 0 0 8.4852817 6 6 0 0 0 8.4852817 0 6 6 0 0 0 0-8.4852817z" opacity=".35"/></g></svg>

<svg xmlns="http://www.w3.org/2000/svg" viewBox="0 0 16 16">
  <path
     style="fill:#555753"
     d="m 12.949747,3.0502525 a 7,7 0 0 0 -9.8994945,0 7,7 0 0 0 0,9.8994945 7,7 0 0 0 9.8994945,0 7,7 0 0 0 0,-9.8994945 z M 11.474767,3.1110195 8,6.5857864 4.5279953,3.1137817 a 6,6 0 0 1 6.9467717,-0.00276 z m 1.411449,1.4169784 a 6,6 0 0 1 0.0028,6.9467691 L 9.4142136,8 Z M 3.1110195,4.5252331 6.5857864,8 3.1137818,11.472005 A 6,6 0 0 1 3.1110195,4.5252331 Z M 8,9.4142136 11.472005,12.886218 a 6,6 0 0 1 -6.9467716,0.0028 z"
     />
  <path
     style="opacity:0.35;fill:#555753"
     d="m 12.242641,3.7573593 a 6,6 0 0 0 -8.4852817,0 6,6 0 0 0 0,8.4852817 6,6 0 0 0 8.4852817,0 6,6 0 0 0 0,-8.4852817 z"
     />
</svg>
